svg/business/currency_won_line.svg

<?xml version="1.0" encoding="UTF-8"?>
<svg width="24px" height="24px" viewBox="0 0 24 24" version="1.1" xmlns="http://www.w3.org/2000/svg" xmlns:xlink="http://www.w3.org/1999/xlink">
    <title>currency_won_line</title>
    <g id="页面-1" stroke="none" stroke-width="1" fill="none" fill-rule="evenodd">
        <g id="Business" transform="translate(-720.000000, -288.000000)" fill-rule="nonzero">
            <g id="currency_won_line" transform="translate(720.000000, 288.000000)">
                <path d="M24,0 L24,24 L0,24 L0,0 L24,0 Z M12.5934901,23.257841 L12.5819402,23.2595131 L12.5108777,23.2950439 L12.4918791,23.2987469 L12.4918791,23.2987469 L12.4767152,23.2950439 L12.4056548,23.2595131 C12.3958229,23.2563662 12.3870493,23.2590235 12.3821421,23.2649074 L12.3780323,23.275831 L12.360941,23.7031097 L12.3658947,23.7234994 L12.3769048,23.7357139 L12.4804777,23.8096931 L12.4953491,23.8136134 L12.4953491,23.8136134 L12.5071152,23.8096931 L12.6106902,23.7357139 L12.6232938,23.7196733 L12.6232938,23.7196733 L12.6266527,23.7031097 L12.609561,23.275831 C12.6075724,23.2657013 12.6010112,23.2592993 12.5934901,23.257841 L12.5934901,23.257841 Z M12.8583906,23.1452862 L12.8445485,23.1473072 L12.6598443,23.2396597 L12.6498822,23.2499052 L12.6498822,23.2499052 L12.6471943,23.2611114 L12.6650943,23.6906389 L12.6699349,23.7034178 L12.6699349,23.7034178 L12.678386,23.7104931 L12.8793402,23.8032389 C12.8914285,23.8068999 12.9022333,23.8029875 12.9078286,23.7952264 L12.9118235,23.7811639 L12.8776777,23.1665331 C12.8752882,23.1545897 12.8674102,23.1470016 12.8583906,23.1452862 L12.8583906,23.1452862 Z M12.1430473,23.1473072 C12.1332178,23.1423925 12.1221763,23.1452606 12.1156365,23.1525954 L12.1099173,23.1665331 L12.0757714,23.7811639 C12.0751323,23.7926639 12.0828099,23.8018602 12.0926481,23.8045676 L12.108256,23.8032389 L12.3092106,23.7104931 L12.3186497,23.7024347 L12.3186497,23.7024347 L12.3225043,23.6906389 L12.340401,23.2611114 L12.337245,23.2485176 L12.337245,23.2485176 L12.3277531,23.2396597 L12.1430473,23.1473072 Z" id="MingCute" fill-rule="nonzero"></path>
                <path d="M12,2 C17.5228,2 22,6.47715 22,12 C22,17.5228 17.5228,22 12,22 C6.47715,22 2,17.5228 2,12 C2,6.47715 6.47715,2 12,2 Z M12,4 C7.58172,4 4,7.58172 4,12 C4,16.4183 7.58172,20 12,20 C16.4183,20 20,16.4183 20,12 C20,7.58172 16.4183,4 12,4 Z M15.0299,8.75746 C15.1638,8.22167 15.7067,7.89591 16.2425,8.02986 C16.7400286,8.15424214 17.0564857,8.6312652 16.9918676,9.12776823 L16.9701,9.24254 L16.7808,10 L17,10 C17.5523,10 18,10.4477 18,11 C18,11.51285 17.613973,11.9355092 17.1166239,11.9932725 L17,12 L16.2808,12 L16.0308,13 L17,13 C17.5523,13 18,13.4477 18,14 C18,14.51285 17.613973,14.9355092 17.1166239,14.9932725 L17,15 L15.5308,15 L15.0534,16.9094 C14.797176,17.934296 13.4083978,18.0282838 12.9898173,17.1104102 L12.9427,16.9904 L12,14.1623 L11.0573,16.9904 C10.72322,17.992736 9.33130909,17.9798374 8.98434586,17.0326577 L8.94657,16.9094 L8.46922,15 L7,15 C6.44772,15 6,14.5523 6,14 C6,13.48715 6.38604429,13.0644908 6.88337975,13.0067275 L7,13 L7.96922,13 L7.71922,12 L7,12 C6.44772,12 6,11.5523 6,11 C6,10.48715 6.38604429,10.0644908 6.88337975,10.0067275 L7,10 L7.21922,10 L7.02986,9.24254 C6.89591,8.70674 7.22167,8.16381 7.75746,8.02986 C8.25498857,7.90547786 8.75866495,8.17747832 8.93532817,8.64595359 L8.97014,8.75746 L10.1373,13.4259 L11.0513,10.6838 C11.1874,10.2754 11.5696,10 12,10 C12.3912727,10 12.7427107,10.2276033 12.9056289,10.5758227 L12.9487,10.6838 L13.8627,13.4259 L15.0299,8.75746 Z" id="形状" fill="#09244B"></path>
            </g>
        </g>
    </g>
</svg>

<svg xmlns="http://www.w3.org/2000/svg" width="24" height="24"><g fill="none" fill-rule="nonzero"><path d="M24 0v24H0V0zM12.593 23.258l-.011.002-.071.035-.02.004-.014-.004-.071-.035c-.01-.004-.019-.001-.024.005l-.004.01-.017.428.005.02.01.013.104.074.015.004.012-.004.104-.074.012-.016.004-.017-.017-.427c-.002-.01-.009-.017-.017-.018m.265-.113-.013.002-.185.093-.01.01-.003.011.018.43.005.012.008.007.201.093c.012.004.023 0 .029-.008l.004-.014-.034-.614c-.003-.012-.01-.02-.02-.022m-.715.002a.023.023 0 0 0-.027.006l-.006.014-.034.614c0 .012.007.02.017.024l.015-.002.201-.093.01-.008.004-.011.017-.43-.003-.012-.01-.01z"/><path fill="#09244B" d="M12 2c5.523 0 10 4.477 10 10s-4.477 10-10 10S2 17.523 2 12 6.477 2 12 2m0 2a8 8 0 1 0 0 16 8 8 0 0 0 0-16m3.03 4.757a1 1 0 0 1 1.962.37l-.022.116-.19.757H17a1 1 0 0 1 .117 1.993L17 12h-.72l-.25 1H17a1 1 0 0 1 .117 1.993L17 15h-1.47l-.477 1.91c-.256 1.024-1.645 1.118-2.063.2l-.047-.12L12 14.162l-.943 2.828c-.334 1.003-1.726.99-2.073.043l-.037-.124L8.469 15H7a1 1 0 0 1-.117-1.993L7 13h.97l-.25-1H7a1 1 0 0 1-.117-1.993L7 10h.22l-.19-.757a1 1 0 0 1 1.905-.597l.035.111 1.167 4.669.914-2.742a1 1 0 0 1 1.855-.108l.043.108.914 2.742z"/></g></svg>
